img/icon/circledown.svg

<?xml version="1.0" ?><svg height="22px" version="1.1" viewBox="0 0 22 22" width="22px" xmlns="http://www.w3.org/2000/svg" xmlns:sketch="http://www.bohemiancoding.com/sketch/ns" xmlns:xlink="http://www.w3.org/1999/xlink"><title/><defs><path d="M0,11 C0,4.92486745 4.92486745,0 11,0 C17.0751325,0 22,4.92486745 22,11 C22,17.0751325 17.0751325,22 11,22 C4.92486745,22 0,17.0751325 0,11 L0,11 Z M21,11 C21,5.47715225 16.5228478,1 11,1 C5.47715225,1 1,5.47715225 1,11 C1,16.5228478 5.47715225,21 11,21 C16.5228478,21 21,16.5228478 21,11 L21,11 Z M11,16.5 L15,13.5 L15,12.5 L11.4984375,15.25 L11.4984374,5.5 L10.5,5.5 L10.5,15.25 L7,12.5 L7,13.5 L11,16.5 L11,16.5 Z" id="path-1"/></defs><g fill="none" fill-rule="evenodd" id="miu" stroke="none" stroke-width="1"><g id="circle_arrow-down_download_outline_stroke"><use fill="#000000" fill-rule="evenodd" xlink:href="#path-1"/><use fill="none" xlink:href="#path-1"/></g></g></svg>

<svg height="22" viewBox="0 0 22 22" width="22" xmlns="http://www.w3.org/2000/svg" xmlns:xlink="http://www.w3.org/1999/xlink"><title/><defs><path d="M0 11C0 4.925 4.925 0 11 0s11 4.925 11 11-4.925 11-11 11S0 17.075 0 11zm21 0c0-5.523-4.477-10-10-10S1 5.477 1 11s4.477 10 10 10 10-4.477 10-10zm-10 5.5l4-3v-1l-3.502 2.75V5.5H10.5v9.75L7 12.5v1l4 3z" id="a"/></defs><g fill="none"><use fill="#000" xlink:href="#a"/><use xlink:href="#a"/></g></svg>
